packages/nouns-webapp/src/assets/icons/NoVote.svg

<svg width="36" height="36" viewBox="0 0 36 36" fill="none" xmlns="http://www.w3.org/2000/svg">
<rect width="36" height="36" rx="18" fill="#D63C5E" fill-opacity="0.1"/>
<path fill-rule="evenodd" clip-rule="evenodd" d="M11.151 11.1663C11.3758 10.9414 11.6806 10.815 11.9985 10.815C12.3164 10.815 12.6213 10.9414 12.8461 11.1663L17.9925 16.3179L23.1389 11.1663C23.2495 11.0517 23.3818 10.9603 23.528 10.8974C23.6743 10.8345 23.8316 10.8014 23.9908 10.8C24.15 10.7986 24.3078 10.829 24.4551 10.8893C24.6025 10.9497 24.7363 11.0388 24.8489 11.1515C24.9614 11.2641 25.0504 11.3981 25.1107 11.5456C25.171 11.6931 25.2013 11.8511 25.1999 12.0104C25.1986 12.1698 25.1655 12.3272 25.1027 12.4736C25.0398 12.62 24.9485 12.7524 24.834 12.8631L19.6876 18.0147L24.834 23.1663C25.0524 23.3927 25.1732 23.6958 25.1705 24.0104C25.1677 24.325 25.0417 24.626 24.8194 24.8485C24.5971 25.071 24.2965 25.1972 23.9821 25.1999C23.6678 25.2027 23.365 25.0817 23.1389 24.8631L17.9925 19.7115L12.8461 24.8631C12.62 25.0817 12.3172 25.2027 12.0028 25.1999C11.6885 25.1972 11.3878 25.071 11.1656 24.8485C10.9433 24.626 10.8172 24.325 10.8145 24.0104C10.8118 23.6958 10.9326 23.3927 11.151 23.1663L16.2974 18.0147L11.151 12.8631C10.9262 12.6381 10.8 12.3329 10.8 12.0147C10.8 11.6965 10.9262 11.3914 11.151 11.1663Z" fill="#D63C5E" stroke="#D63C5E"/>
</svg>

<svg xmlns="http://www.w3.org/2000/svg" width="36" height="36" fill="none">
    <rect width="36" height="36" fill="#D63C5E" fill-opacity=".1" rx="18"/>
    <path fill="#D63C5E" fill-rule="evenodd" stroke="#D63C5E" d="M11.151 11.166a1.2 1.2 0 0 1 1.695 0l5.147 5.152 5.146-5.152a1.2 1.2 0 1 1 1.695 1.697l-5.146 5.152 5.146 5.151a1.2 1.2 0 0 1-.852 2.034 1.2 1.2 0 0 1-.843-.337l-5.146-5.151-5.147 5.151a1.198 1.198 0 0 1-2.031-.853 1.2 1.2 0 0 1 .336-.844l5.146-5.151-5.146-5.152a1.2 1.2 0 0 1 0-1.697Z" clip-rule="evenodd"/>
</svg>
